X: 49
T:John O'Groat's House
S:Edinburgh sessions c.1990
S:John Martin, fiddle
S:Niall Kenny, flute
Z:Gordon Turnbull
B:Kerr's Merrie Melodies (in C)
D:John Martin tape
R:reel
N:Posted to the woodenflute mailing list, July 2002
M:C|
K:D
Adde f2 ed | cAeA cAcd | Adde f2 ed | Adcd ec d2 :|
agfa gbag | fded Beee | agfa gbag | fded Addd |
agfa gbag | fded Beee | Adde f2 ed | Adcd ec d2 :|
